Yosa-Max/actions/22x22/gtk-about.svg

<?xml version="1.0" encoding="UTF-8"?>
<svg id="svg4359" version="1.1" viewBox="0 0 22 22" xmlns="http://www.w3.org/2000/svg">
 <g id="layer1" transform="translate(0,-26)">
  <path id="rect4157" transform="translate(0,26)" d="m11 3a8 8.0000114 0 0 0-8 8 8 8.0000114 0 0 0 8 8 8 8.0000114 0 0 0 8-8 8 8.0000114 0 0 0-8-8zm0 2a6.0000029 6.0000114 0 0 1 6 6 6.0000029 6.0000114 0 0 1-6 6 6.0000029 6.0000114 0 0 1-6-6 6.0000029 6.0000114 0 0 1 6-6zm0 2c-0.554 0-1 0.446-1 1s0.446 1 1 1 1-0.446 1-1-0.446-1-1-1zm-1 3v5h2v-5h-2z" style="fill:#4d4d4d"/>
 </g>
</svg>

<?xml version="1.0" encoding="UTF-8" standalone="no"?>
<svg
   xmlns:dc="http://purl.org/dc/elements/1.1/"
   xmlns:cc="http://creativecommons.org/ns#"
   xmlns:rdf="http://www.w3.org/1999/02/22-rdf-syntax-ns#"
   xmlns:svg="http://www.w3.org/2000/svg"
   xmlns="http://www.w3.org/2000/svg"
   version="1.1"
   id="svg4359"
   height="22"
   width="22">
  <defs
     id="defs4361" />
  <metadata
     id="metadata4364">
    <rdf:RDF>
      <cc:Work
         rdf:about="">
        <dc:format>image/svg+xml</dc:format>
        <dc:type
           rdf:resource="http://purl.org/dc/dcmitype/StillImage" />
        <dc:title></dc:title>
      </cc:Work>
    </rdf:RDF>
  </metadata>
  <g
     transform="translate(0,-26)"
     id="layer1">
    <path
       id="rect4157"
       transform="translate(0,26)"
       d="M 11 3 A 8 8.0000114 0 0 0 3 11 A 8 8.0000114 0 0 0 11 19 A 8 8.0000114 0 0 0 19 11 A 8 8.0000114 0 0 0 11 3 z M 11 5 A 6.0000029 6.0000114 0 0 1 17 11 A 6.0000029 6.0000114 0 0 1 11 17 A 6.0000029 6.0000114 0 0 1 5 11 A 6.0000029 6.0000114 0 0 1 11 5 z M 11 7 C 10.446 7 10 7.446 10 8 C 10 8.554 10.446 9 11 9 C 11.554 9 12 8.554 12 8 C 12 7.446 11.554 7 11 7 z M 10 10 L 10 15 L 12 15 L 12 10 L 10 10 z "
       style="opacity:1;fill:#4d4d4d;fill-opacity:1;stroke:none;stroke-width:0.1;stroke-linecap:round;stroke-linejoin:miter;stroke-miterlimit:4;stroke-dasharray:none;stroke-opacity:0.29943501" />
  </g>
</svg>
